src/components/Icon/assets/key.svg

<svg width="24" height="24" viewBox="0 0 24 24" fill="none" xmlns="http://www.w3.org/2000/svg">
<g id="key">
<path id="Fill 1" fill-rule="evenodd" clip-rule="evenodd" d="M12.9577 11.0403C11.9817 10.0643 11.9817 8.48127 12.9577 7.50527C13.9347 6.52827 15.5167 6.52827 16.4937 7.50527C17.4697 8.48127 17.4697 10.0643 16.4937 11.0403C15.5167 12.0173 13.9337 12.0173 12.9577 11.0403ZM18.9707 5.02727C16.6267 2.68427 12.8287 2.68427 10.4857 5.02727C8.63869 6.87427 8.25369 9.62227 9.31769 11.8523L1.99969 19.1693V21.9983H4.82869L5.53569 21.2913V19.1693H7.65669L8.36369 18.4623V16.3413H10.4857L12.1457 14.6803C14.3757 15.7443 17.1247 15.3593 18.9707 13.5133C21.3137 11.1693 21.3137 7.37127 18.9707 5.02727Z" fill="#242428"/>
</g>
</svg>

<svg xmlns="http://www.w3.org/2000/svg" width="24" height="24" fill="none" viewBox="0 0 24 24">
    <path fill="#65676A" fill-rule="evenodd" d="M12.958 11.04c-.976-.976-.976-2.559 0-3.535.977-.977 2.559-.977 3.536 0 .976.976.976 2.56 0 3.535-.977.977-2.56.977-3.536 0zm6.013-6.013c-2.344-2.343-6.142-2.343-8.485 0-1.847 1.847-2.232 4.595-1.168 6.825L2 19.17V22h2.829l.707-.708V19.17h2.12l.708-.707v-2.12h2.122l1.66-1.662c2.23 1.064 4.979.68 6.825-1.167 2.343-2.344 2.343-6.142 0-8.486z" clip-rule="evenodd"/>
</svg>
